X:128
T:Gentle Maiden
M:3/4
L:1/8
R:Waltz
K:G
F2|"G"G3AG2|"D7"F2E2D2|"G"d6|"C"e3fg2|
"G"d3cB2|"C"A4G2|"Am"E6|"D7"F4F2|
"G"G3AG2|"D7"F2E2D2|"G"d6|"C"e3fg2|
"G"d3cB2|"D7"A2G2F2|1"G"(G6|G4)F2:|2"G"(G6|G4)d2||
"G"d3ef2|"C"g6|g3ag2|g3fe2|
"G"d3cB2|"Am"A4G2|"C"E6|"D7"F4F2|
"G"G3AG2|"D7"F2E2D2|"G"d6|"C"e3fg2|
"G"d2c2B2|"Am"A2G2"D7"F2|1"G"9G6|G4)d2:|2"G"(G6|G4)||
